src/16/mimetypes/presentate.svg

<svg xmlns="http://www.w3.org/2000/svg" width="16" height="16"><path style="marker:none" d="M2 3v8h4v2H5v1h6v-1h-1v-2h4V3H2zm1 1h10v6H3V4zm3.5 1v4l3-2-3-2zm.5 6h2v2H7v-2z" color="#000" fill="#f67400" stroke-width=".1" overflow="visible"/></svg>

<?xml version="1.0" encoding="UTF-8" standalone="no"?>
<!-- Created with Inkscape (http://www.inkscape.org/) -->

<svg
   xmlns:dc="http://purl.org/dc/elements/1.1/"
   xmlns:cc="http://creativecommons.org/ns#"
   xmlns:rdf="http://www.w3.org/1999/02/22-rdf-syntax-ns#"
   xmlns:svg="http://www.w3.org/2000/svg"
   xmlns="http://www.w3.org/2000/svg"
   xmlns:sodipodi="http://sodipodi.sourceforge.net/DTD/sodipodi-0.dtd"
   xmlns:inkscape="http://www.inkscape.org/namespaces/inkscape"
   width="16"
   height="16"
   id="svg2"
   version="1.1"
   inkscape:version="0.91+devel r"
   viewBox="0 0 16 16"
   sodipodi:docname="presentate.svg">
  <defs
     id="defs4" />
  <sodipodi:namedview
     id="base"
     pagecolor="#ffffff"
     bordercolor="#666666"
     borderopacity="1.0"
     inkscape:pageopacity="0.0"
     inkscape:pageshadow="2"
     inkscape:zoom="68.250003"
     inkscape:cx="7.9236549"
     inkscape:cy="4.5507913"
     inkscape:document-units="px"
     inkscape:current-layer="layer1"
     showgrid="true"
     inkscape:showpageshadow="false"
     borderlayer="true"
     inkscape:window-width="1366"
     inkscape:window-height="672"
     inkscape:window-x="-4"
     inkscape:window-y="25"
     inkscape:window-maximized="1"
     units="px"
     inkscape:snap-bbox="true"
     inkscape:snap-global="true">
    <inkscape:grid
       type="xygrid"
       id="grid4101" />
    <sodipodi:guide
       position="2,14.000017"
       orientation="12,0"
       id="guide4071" />
    <sodipodi:guide
       position="2,2.0000174"
       orientation="0,12"
       id="guide4073" />
    <sodipodi:guide
       position="14,2.0000174"
       orientation="-12,0"
       id="guide4075" />
    <sodipodi:guide
       position="14,14.000017"
       orientation="0,-12"
       id="guide4077" />
  </sodipodi:namedview>
  <metadata
     id="metadata7">
    <rdf:RDF>
      <cc:Work
         rdf:about="">
        <dc:format>image/svg+xml</dc:format>
        <dc:type
           rdf:resource="http://purl.org/dc/dcmitype/StillImage" />
        <dc:title />
      </cc:Work>
    </rdf:RDF>
  </metadata>
  <g
     inkscape:label="Capa 1"
     inkscape:groupmode="layer"
     id="layer1"
     transform="translate(0,-1036.3622)">
    <path
       style="color:#000000;fill:#f67400;fill-opacity:1;fill-rule:nonzero;stroke:none;stroke-width:0.1;marker:none;visibility:visible;display:inline;overflow:visible;enable-background:accumulate"
       d="M 2 3 L 2 11 L 6 11 L 6 13 L 5 13 L 5 14 L 11 14 L 11 13 L 10 13 L 10 11 L 14 11 L 14 3 L 2 3 z M 3 4 L 13 4 L 13 10 L 3 10 L 3 4 z M 6.5 5 L 6.5 9 L 9.5 7 L 6.5 5 z M 7 11 L 9 11 L 9 13 L 7 13 L 7 11 z "
       transform="translate(0,1036.3622)"
       id="rect3764" />
  </g>
</svg>
